!!!!SEGMENT: pl-kc--40102-iii-1-saf--002-019_zielenski-mikolaj--communiones-totius-anni-feria-tertia-pentecostes-spiritus-qui-a-patre-procedit.krn
!!!cenid: 16xx:1550
!!!COM: Zieleński, Mikołaj
!!!COM-rismid: pe30013481
!!!CDT:
!!!CNT: Polish
!!!OTL: Communiones totius anni
!!!OMV: 019
!!!PDT: 1611
!!!AGN:
!!!SMS-siglum: PL-Kc
!!!SMS-shelfmark: 40102 III/1 Saf.
!!!SMS-shelfwork: 002-019 W
!!!SMS-variant:
!!!SMS-altvar:
!!!NIFC-rismid: 990069887
!!!URL-scan: https://cyfrowe.mnk.pl/dlibra/publication/24235/edition/23926/content?ref=desc
!!!ONB-nifc: UWAGA: str. 54. Numer w źródle: 20. Uwaga: W xml metrum 2/1 do źródłowego C| i odpowiednio 3/1 do 3/2
!!!key: f:lid
**kern	**kern	**kern	**kern
*group1	*group1	*group1	*group1
*part4	*part3	*part2	*part1
*staff4	*staff3	*staff2	*staff1
*I""Organo	*	*	*
*Iorgan	*Iorgan	*Iorgan	*Iorgan
*ICklav	*ICklav	*ICklav	*ICklav
*clefF4	*clefC4	*clefC3	*clefC1
*k[b-]	*k[b-]	*k[b-]	*k[b-]
*F:	*F:	*F:	*F:
*M2/1	*M2/1	*M2/1	*M2/1
*met(C|)	*met(C|)	*met(C|)	*met(C|)
=1	=1	=1	=1
!LO:TX:t=P:problem:all/middle:global	!LO:TX:t=P:problem:all/middle:global	!LO:TX:t=P:problem:all/middle:global	!LO:TX:t=P:problem:all/middle:global
!LO:TX:t=P:problem:all\middle:global	!LO:TX:t=P:problem:all\middle:global	!LO:TX:t=P:problem:all\middle:global	!LO:TX:t=P:problem:all\middle:global
!	!	!LO:TX:a:t=Spiritus qui a Patre procedit.	!LO:TX:a:t=Feria tertia Pentecoſtes. Duae voces.
00r	1.F	0r	00r
.	2F/	.	.
=2-	=2-	=2-	=2-
.	2C/	1.c	.
.	1F	.	.
.	2E/	2c/	.
=3	=3	=3	=3
00r	2.D/	2F/	1r
.	.	1f	.
.	4E/	.	.
.	4F/	.	1.cc
.	4G/	.	.
.	4A/	4e\	.
.	4B-\	4d\	.
=4-	=4-	=4-	=4-
.	2c\	2e\	.
.	2A/	2f\	2cc\
.	2.B-\	[y1d	2f/
.	.	.	[<2ff\
.	8A/	.	.
.	8G/	.	.
=5	=5	=5	=5
!	!	!LO:N:vis=4:xstem:cue	!
00r	4F/	2d]	2ff\]
.	4G/	.	.
.	2A/	2c/	2ee\
.	2D/	2B-/	2dd\
.	2F/	2A/	2cc\
=6-	=6-	=6-	=6-
.	4G/	4B-/	2b-\
.	4A/	4c/	.
.	4B-\	4d\	2b-\
.	4G/	4e\	.
.	2.d\	4f\	2a\
.	.	4g\	.
.	.	2a\	[y2ff\
.	4c\	.	.
=7	=7	=7	=7
!	!	!	!LO:N:xstem:cue
0r	4B-\	2d\	4ff\]
.	4G/	.	4ee\
.	2.c\	2e\	4ee\
.	.	.	8dd\
.	.	.	8cc\
.	.	2.d\	2dd\
!	!LO:N:acc=#	!	!
.	8Bn\	.	.
.	8A\	.	.
.	2B\	.	2dd\
.	.	4d\	.
=8-	=8-	=8-	=8-
1.C	2.c\	2e\	[y0cc
.	.	2.g\	.
.	4B-y\	.	.
.	2A/	.	.
.	.	2f\	.
2C/	2G/	.	.
.	.	4e\	.
=9	=9	=9	=9
!	!	!	!LO:N:vis=4:xstem:cue
2FF/	4F/	2f\	1cc]
.	4G/	.	.
1F	4A/	1c	.
.	4B-\	.	.
.	2A/	.	1r
2E\	2c\	2G/	.
=10-	=10-	=10-	=10-
2D/	2F/	2d\	0r
2C/	2.A/	2e\	.
2BB-/	.	2f\	.
.	8G/	.	.
.	8F/	.	.
2BB-/	2G/	4e\	.
.	.	4d\	.
!LO:SIC:v:t=custos AA	!LO:SIC:v:t=custos A	!LO:SIC:v:t=custos c	!LO:SIC:v:t=custos cc
!LO:LB:g=original	!LO:LB:g=original	!LO:LB:g=original	!LO:LB:g=original
=11	=11	=11	=11
2.AA/	2.A/	2.c/	2r
.	.	.	1cc
4BB-/	8G/	4d\	.
.	8F/	.	.
2C/	2E/	2e\	.
2FF/	2A/	2f\	2cc\
=12-	=12-	=12-	=12-
2.BB-/	2B-\	1.d	2f/
.	1G	.	1b-
4C/	.	.	.
1D	.	.	.
.	2F/	2d\	2a\
=13	=13	=13	=13
!LO:SIC:v:s:t=2GG/	!	!	!
2FF/	2B-\	2d\	2g/
2D/	2A/	2d\	2f/
2G\	2B-\	4d\	2b-\
.	.	4c\	.
2G\	2B-\	4d\	2b-\
.	.	4e\	.
=14-	=14-	=14-	=14-
4F\	2c\	2f\	2a\
4E\	.	.	.
4D/	2F/	1f	1dd
4C/	.	.	.
4BB-/	2G/	.	.
4GG/	.	.	.
2C/	2G/	2e\	2cc\
=15	=15	=15	=15
!	!	!	!LO:N:acc=#
1.GG	0G	2d\	2bn\
.	.	2e\	2.cc\
.	.	1d	.
!	!	!	!LO:N:acc=#
.	.	.	8bn\
.	.	.	8a\
!	!	!	!LO:SIC:v:s:t=2bn\
2GG/	.	.	2b-y\
=16-	=16-	=16-	=16-
1C	2G/	2c/	1cc
.	2c\	2e\	.
1r	2B-\	2d\	2r
.	2A/	2c/	2cc\
=17	=17	=17	=17
0r	2G/	4d\	2b-\
.	.	4e\	.
.	2F/	4f\	2a\
.	.	4d\	.
.	2c\	4e\	2g/
.	.	4f\	.
.	2G/	2.g\	2.b-\
=18-	=18-	=18-	=18-
1r	1d	.	.
.	.	8f\	8a\
.	.	8e\	8g\
.	.	4f\	4a#X\
.	.	4d\	4b-\
2r	2.c\	2e\	1cc
2F\	.	2a\	.
.	8A\	.	.
.	8B-\	.	.
=19	=19	=19	=19
2E\	4c\	2g\	2r
.	4G/	.	.
2D/	4A/	2f\	2ff\
.	4F/	.	.
2C/	2c\	2.g\	2ff\
2r	2B-\	.	2dd\
.	.	4d\	.
=20-	=20-	=20-	=20-
2r	2A/	4f\	1cc
.	.	8e\	.
.	.	8d\	.
2C/	2.G/	4e\	.
.	.	4c/	.
2BB-/	.	2d\	2r
.	8D/	.	.
.	8E/	.	.
2AA/	4F/	2c/	2cc\
.	4E/	.	.
=21	=21	=21	=21
2GG/	2G/	2d\	2b-\
2FF/	1c	2f\	2a\
2.C/	.	4e\	4g/
.	.	4d\	4f/
.	2G/	4e\	4g/
4C/	.	4f\	4a\
=22-	=22-	=22-	=22-
4GG/	2d\	2g\	2b-\
4AA/	.	.	.
4BB-/	1d	2g\	2b-\
4GG/	.	.	.
2D/	.	1f	4a\
.	.	.	4f/
2D/	2A/	.	4a\
.	.	.	4b-\
=23	=23	=23	=23
2AA/	2.A/	2e\	2.cc\
4GG/	.	2f\	.
4FF/	4A/	.	4dd\
1C	2G/	2g\	4ee\
.	.	.	4cc\
.	2F/	2a\	2.ff\
=24-	=24-	=24-	=24-
1C	1G	1g	.
.	.	.	8ee\
.	.	.	8dd\
.	.	.	2ee\
4FF/	4F/	4a\	1ff
2F\	2A/	2a\	.
4F\	4c\	4a\	.
=25	=25	=25	=25
2D/	2d\	2f\	00r
2G\	2B-\	2d\	.
2E-X\	2G/	2e-X\	.
!	!	!LO:SIC:v:s:t=2e-\	!
2C/	2.c\	2eny\	.
=26-	=26-	=26-	=26-
2G\	.	1d	.
!	!LO:N:acc=#	!	!
.	8Bn\	.	.
.	8A\	.	.
!	!LO:SIC:v:s:t=2Bn\	!	!
2GG/	2B-y\	.	.
2.C/	2.c\	2c/	.
.	.	2eny\	.
4C/	4c\	.	.
=27	=27	=27	=27
2D/	2A/	2f\	0r
2BB-/	2.d\	2d\	.
1E-X	.	1g	.
.	8c\	.	.
.	8B-\	.	.
.	2c\	.	.
=28-	=28-	=28-	=28-
1D	4d\	4f#X\	4r
.	2d\	2a\	2ff\
.	4d\	4a\	4ff\
1r	2B-\	2b-X\	2dd\
.	2e-X\	2g\	2b-\
=29	=29	=29	=29
!	!LO:SIC:v:s:t=2e-\	!	!
0r	2e\	2g\	2ee-X\
!	!	!	!LO:SIC:v:s:t=2ee-\
.	2c\	1cc	2eeny\
*	*	*	*lig
.	2.d\	.	1dd
.	.	2.b-\	.
.	4e\	.	.
=30-	=30-	=30-	=30-
1r	2f\	.	1cc
.	.	8a\	.
.	.	8g\	.
.	2F/	2a\	.
*	*	*	*Xlig
2r	2B-\	2b-\	2dd\
[<2BB-/	[<2B-\	[<2f\	[<2dd\
!LO:SIC:v:t=custos BB-	!LO:SIC:v:t=custos B-	!LO:SIC:v:t=custos f	!LO:SIC:v:t=custos dd
!LO:LB:g=original	!LO:LB:g=original	!LO:LB:g=original	!LO:LB:g=original
=31	=31	=31	=31
2BB-/]	2B-\]	2f\]	2dd\]
2BB-/	2B-\	2f\	2dd\
2GG/	2d\	2g\	2b-\
2E\	2B-\	2g\	2b-\
=32-	=32-	=32-	=32-
2C/	2e-X\	2g\	2cc\
2C/	2e-\	2g\	2cc\
4GG/	1d	1g	1b-
4AA/	.	.	.
4BB-/	.	.	.
4GG/	.	.	.
=33	=33	=33	=33
2D/	2A/	2f\	2a\
2BB-/	2B-\	2f\	4dd\
.	.	.	4cc\
2E-X\	2G/	2g\	4b-\
.	.	.	4g\
2C/	2e-X\	2g\	2cc\
=34-	=34-	=34-	=34-
*lig	*	*	*
!	!	!	!LO:N:acc=#
1G	2d\	1g	2bn\
.	2c\	.	2.cc\
1GG	1d	2.g\	.
!	!	!	!LO:N:acc=#
.	.	.	8bn\
.	.	.	8a\
!	!	!	!LO:SIC:v:s:t=2bn\
.	.	.	2b-y\
.	.	4f\	.
*Xlig	*	*	*
=35	=35	=35	=35
1C	2.c\	2e\	1cc
.	.	2e\	.
.	4c\	.	.
1r	2B-\	2d\	2r
.	2A/	2c/	2cc\
=36-	=36-	=36-	=36-
0r	2G/	4d\	2b-\
.	.	4e\	.
.	2F/	4f\	2a\
.	.	4d\	.
.	2c\	4e\	2g/
.	.	4f\	.
.	2G/	[y2g\	[y2b-\
=37	=37	=37	=37
!	!	!LO:N:xstem:cue	!LO:N:xstem:cue
1r	1d	4g\]	4b-\]
.	.	8f\	8a\
.	.	8e\	8g\
.	.	4f\	4a\
!	!	!	!LO:N:acc=#
.	.	4d\	4bn\
2r	2.c\	2e\	1cc
2F\	.	2a\	.
.	8A\	.	.
.	8B-\	.	.
=38-	=38-	=38-	=38-
2E\	4c\	2g\	2r
.	4G/	.	.
2D/	4A/	2f\	2ff\
.	4F/	.	.
2C/	2c\	2.g\	2ee\
2r	2B-\	.	2dd\
.	.	4d\	.
=39	=39	=39	=39
2r	2A/	4f\	1cc
.	.	8e\	.
.	.	8d\	.
2C/	2.G/	4e\	.
.	.	4c/	.
2BB-/	.	2d\	2r
.	8D/	.	.
.	8E/	.	.
2AA/	4F/	2c/	2ryy
.	4E/	.	.
=40-	=40-	=40-	=40-
2GG/	2F/	2d\	2cc\
2FF/	1A	2f\	2a\
2.C/	.	4e\	4g/
.	.	4d\	4f/
.	2F/	4e\	4g/
4C/	.	4f\	4a\
=41	=41	=41	=41
4GG/	2d\	2g\	2b-\
4AA/	.	.	.
4BB-/	1d	2g\	2b-\
4GG/	.	.	.
2D/	.	1f	4a\
.	.	.	4f/
2D/	1A\	.	4a\
.	.	.	4b-\
=42-	=42-	=42-	=42-
2AA/	.	2e\	2.cc\
4GG/	2A/	2f\	.
4FF/	.	.	4dd\
1C	2G/	2g\	4ee\
.	.	.	4cc\
.	2F/	2a\	[y2ff\
=43	=43	=43	=43
!	!	!	!LO:N:xstem:cue
1C	1G	1.g	4ff\]
.	.	.	8ee\
.	.	.	8dd\
.	.	.	2ee\
1FF	2.F/	.	2ff\
.	.	2a\	2.cc\
.	4G/	.	.
=44-	=44-	=44-	=44-
2.F\	4A/	2.a\	.
.	4B-\	.	4b-\
.	2c\	.	4a\
!	!	!LO:TX:a:t=P:problem:problem z rytmem	!
!	!	!LO:N:vis=4	!
4E\	.	8g\	4g/
!	!	!LO:N:vis=4	!
.	.	8f\	.
2.D/	2F/	4g\	2f/
!	!	!LO:N:vis=2	!
.	.	4a\	.
.	2A/	[y2d\	[y2ff\
4C/	.	.	.
=45	=45	=45	=45
!	!	!LO:N:xstem:cue	!LO:N:xstem:cue
1.BB-	2.B-\	4d\]	4ff\]
.	.	4e\	4ee\
.	.	2f\	4dd\
.	4c\	.	4cc\
.	2d\	00f	4b-\
.	.	.	4f/
2AA/	2c\	.	2cc\
=46-	=46-	=46-	=46-
0.BB-	4B-\	.	2.dd\
.	4F/	.	.
.	4B-\	.	.
.	4c\	.	4cc\
.	2.d\	.	4b-\
.	.	.	4f/
.	.	.	4b-\
.	4c\	.	4cc\
=47-	=47-	=47-	=47-
.	4B-\	.	2dd\
.	4F/	.	.
.	1B-	.	2b-\
[0.Fl\	.	[0.fl\	[0.ccl\
.	4A/	.	.
.	4G/	.	.
=48-	=48-	=48-	=48-
.	00A\	.	.
0F]	.	0f]	0cc]
==	==	==	==
*-	*-	*-	*-
!!!system-decoration: g1
!!!RDF**kern: l = terminal long
!!!RDF**kern: > = above
!!!RDF**kern: < = below
!!!ENC: Andrzej Gręziak
!!!END: 2020-12-18
!!!EED: Jędrzej Mróz
!!!EST: 2021-12-23
